X: 5153
T: Bright Hollow Fog, The
R: strathspey
M: 4/4
K: Eminor
E|E2F2 G3F|G3A B4|g3f e4|d3B A4|
G2A2 B3A|B3G E2 (3EFG|F3G G4-|G4-G3:|
B|B2d2 g4|f3g e4|f3g f3e|f3d B3B|
B2d2 e3e|e3f g2 (3gfe|f3d e4-|e4-e3|
E|E2F2 G3F|G3A B4|g3f e4|d3B A4|
B2c2 B3A|B3G E2 (3EFG|F3G G4-|G4-G3||

